Adwaita++/apps/scalable/calamares.svg

<svg height="128" width="128" xmlns="http://www.w3.org/2000/svg" xmlns:xlink="http://www.w3.org/1999/xlink">
  <linearGradient id="linearGradient865" gradientUnits="userSpaceOnUse" x1="5.2" x2="122.8" y1="273.26175" y2="273.26175">
    <stop offset="0" stop-color="#d5d3cf"/>
    <stop offset=".038" stop-color="#e3e2df"/>
    <stop offset=".077" stop-color="#c0bfbc"/>
    <stop offset=".923" stop-color="#c0bfbc"/>
    <stop offset=".962" stop-color="#e3e2df"/>
    <stop offset="1" stop-color="#d5d3cf"/>
  </linearGradient>
  <g transform="translate(0 -172)">
    <rect fill="url(#linearGradient865)" height="39.599998" rx="5.667402" ry="5.452601" width="117.6" x="5.2" y="253.46175"/>
    <path d="m20 10c-4.432 0-8 3.568-8 8v42 42c0 4.432 3.568 8 8 8h44 44c4.432 0 8-3.568 8-8v-42-42c0-4.432-3.568-8-8-8z" fill="#d35400" transform="translate(0 172)"/>
    <path d="m60.893934 193.62044v29.99999l-13.499997-13.49999-4.499998 4.5 20.999994 20.99999 20.999993-20.99999-4.499996-4.5-13.499997 13.49999v-29.99999z" fill="#fcfcfc"/>
    <rect fill="#efefef" height="39.599998" rx="5.667402" ry="5.452601" width="117.6" x="5.2" y="247.46175"/>
    <g stroke-width=".866667" transform="matrix(1.1538462 0 0 1.1538462 -9.679648 -25.123087)">
      <path d="m71.168193 255.77333h21.774994c1.077257 3.01465 3.918563 5.2 7.312503 5.2 4.32119 0 7.79999-3.4788 7.79999-7.8s-3.4788-7.8-7.79999-7.8c-3.39394 0-6.235246 2.18535-7.312503 5.2h-21.774994c.4875 2.6.4875 2.6 0 5.2z" fill="#4d4d4d" opacity=".778761"/>
      <path d="m27.455699 245.37333c-4.32119 0-7.79999 3.4788-7.79999 7.8s3.4788 7.8 7.79999 7.8c3.39394 0 6.235244-2.18535 7.312501-5.2h21.774997c1.077257 3.01465 3.918563 5.2 7.312498 5.2 4.321199 0 7.799998-3.4788 7.799998-7.8s-3.478799-7.8-7.799998-7.8c-3.393935 0-6.235241 2.18535-7.312498 5.2h-21.774997c-1.077257-3.01465-3.918561-5.2-7.312501-5.2z" fill="#d35400"/>
    </g>
  </g>
</svg>

<?xml version="1.0" encoding="UTF-8" standalone="no"?>
<svg
   xmlns:dc="http://purl.org/dc/elements/1.1/"
   xmlns:cc="http://creativecommons.org/ns#"
   xmlns:rdf="http://www.w3.org/1999/02/22-rdf-syntax-ns#"
   xmlns:svg="http://www.w3.org/2000/svg"
   xmlns="http://www.w3.org/2000/svg"
   xmlns:xlink="http://www.w3.org/1999/xlink"
   xmlns:sodipodi="http://sodipodi.sourceforge.net/DTD/sodipodi-0.dtd"
   xmlns:inkscape="http://www.inkscape.org/namespaces/inkscape"
   width="128"
   height="128"
   version="1.0"
   id="svg75"
   sodipodi:docname="calamares.svg"
   inkscape:version="0.92.3 (2405546, 2018-03-11)">
  <metadata
     id="metadata79">
    <rdf:RDF>
      <cc:Work
         rdf:about="">
        <dc:format>image/svg+xml</dc:format>
        <dc:type
           rdf:resource="http://purl.org/dc/dcmitype/StillImage" />
        <dc:title></dc:title>
      </cc:Work>
    </rdf:RDF>
  </metadata>
  <sodipodi:namedview
     pagecolor="#ffffff"
     bordercolor="#666666"
     borderopacity="1"
     objecttolerance="10"
     gridtolerance="10"
     guidetolerance="10"
     inkscape:pageopacity="0"
     inkscape:pageshadow="2"
     inkscape:window-width="1800"
     inkscape:window-height="986"
     id="namedview77"
     showgrid="false"
     inkscape:zoom="5.3291446"
     inkscape:cx="67.486212"
     inkscape:cy="55.543884"
     inkscape:window-x="0"
     inkscape:window-y="34"
     inkscape:window-maximized="0"
     inkscape:current-layer="g73" />
  <defs
     id="defs24">
    <linearGradient
       id="a">
      <stop
         offset="0"
         stop-color="#68676b"
         id="stop2" />
      <stop
         offset=".8"
         stop-color="#424048"
         id="stop4" />
      <stop
         offset="1"
         stop-color="#241f31"
         id="stop6" />
    </linearGradient>
    <radialGradient
       xlink:href="#a"
       id="d"
       gradientUnits="userSpaceOnUse"
       gradientTransform="matrix(1.34416 .0006 -.00062 1.38763 -121.22 -718.103)"
       cx="279.422"
       cy="446.483"
       fx="279.422"
       fy="446.483"
       r="224" />
    <linearGradient
       xlink:href="#b"
       id="e"
       gradientUnits="userSpaceOnUse"
       gradientTransform="matrix(1.0015 0 0 .99993 72.09 56.015)"
       x1="43.844"
       y1="234"
       x2="-60"
       y2="234" />
    <linearGradient
       id="b">
      <stop
         offset="0"
         stop-color="#d5d3cf"
         id="stop11" />
      <stop
         offset=".038"
         stop-color="#e3e2df"
         id="stop13" />
      <stop
         offset=".077"
         stop-color="#c0bfbc"
         id="stop15" />
      <stop
         offset=".923"
         stop-color="#c0bfbc"
         id="stop17" />
      <stop
         offset=".962"
         stop-color="#e3e2df"
         id="stop19" />
      <stop
         offset="1"
         stop-color="#d5d3cf"
         id="stop21" />
    </linearGradient>
    <linearGradient
       id="linearGradient3819">
      <stop
         style="stop-color:#eff0f1;stop-opacity:1;"
         offset="0"
         id="stop3821" />
      <stop
         style="stop-color:#bdc3c7;stop-opacity:1;"
         offset="1"
         id="stop3823" />
    </linearGradient>
    <linearGradient
       id="linearGradient5623">
      <stop
         id="stop5625"
         offset="0"
         style="stop-color:#d35400;stop-opacity:1;" />
      <stop
         style="stop-color:#d35400;stop-opacity:1;"
         offset="1"
         id="stop5627" />
    </linearGradient>
    <linearGradient
       inkscape:collect="always"
       xlink:href="#b"
       id="linearGradient865"
       x1="5.1999998"
       y1="269.26175"
       x2="122.8"
       y2="269.26175"
       gradientUnits="userSpaceOnUse"
       gradientTransform="translate(0,4)" />
  </defs>
  <g
     transform="translate(0 -172)"
     id="g73">
    <rect
       ry="5.452601"
       rx="5.6674018"
       y="253.46175"
       x="5.1999998"
       height="39.599998"
       width="117.6"
       id="rect857"
       style="opacity:1;fill:url(#linearGradient865);fill-opacity:1;stroke:none;stroke-width:2.4000001;stroke-linecap:square;stroke-linejoin:bevel;stroke-miterlimit:4;stroke-dasharray:none;stroke-opacity:1" />
    <path
       style="fill:#d35400;fill-opacity:1"
       d="M 20 10 C 15.568 10 12 13.568 12 18 L 12 60 L 12 102 C 12 106.432 15.568 110 20 110 L 64 110 L 108 110 C 112.432 110 116 106.432 116 102 L 116 60 L 116 18 C 116 13.568 112.432 10 108 10 L 20 10 z "
       id="path37"
       transform="translate(0,172)" />
    <path
       style="color:#000000;font-style:normal;font-variant:normal;font-weight:normal;font-stretch:normal;font-size:medium;line-height:normal;font-family:sans-serif;text-indent:0;text-align:start;text-decoration:none;text-decoration-line:none;text-decoration-style:solid;text-decoration-color:#000000;letter-spacing:normal;word-spacing:normal;text-transform:none;writing-mode:lr-tb;direction:ltr;baseline-shift:baseline;text-anchor:start;white-space:normal;clip-rule:nonzero;display:inline;overflow:visible;visibility:visible;opacity:1;isolation:auto;mix-blend-mode:normal;color-interpolation:sRGB;color-interpolation-filters:linearRGB;solid-color:#000000;solid-opacity:1;fill:#fcfcfc;fill-opacity:1;fill-rule:nonzero;stroke:none;stroke-width:2;stroke-linecap:butt;stroke-linejoin:miter;stroke-miterlimit:4;stroke-dasharray:none;stroke-dashoffset:0;stroke-opacity:1;color-rendering:auto;image-rendering:auto;shape-rendering:auto;text-rendering:auto;enable-background:accumulate"
       d="m 60.893934,193.62044 v 29.99999 l -13.499997,-13.49999 -4.499998,4.5 20.999994,20.99999 20.999993,-20.99999 -4.499996,-4.5 -13.499997,13.49999 v -29.99999 z"
       id="path3938"
       inkscape:connector-curvature="0" />
    <rect
       style="opacity:1;fill:#efefef;fill-opacity:1;stroke:none;stroke-width:2.4000001;stroke-linecap:square;stroke-linejoin:bevel;stroke-miterlimit:4;stroke-dasharray:none;stroke-opacity:1"
       id="rect847"
       width="117.6"
       height="39.599998"
       x="5.1999998"
       y="247.46175"
       rx="5.6674018"
       ry="5.452601" />
    <g
       id="g898"
       transform="matrix(1.1538462,0,0,1.1538462,-9.6796478,-25.123087)"
       style="stroke-width:0.86666667">
      <path
         sodipodi:nodetypes="ccsssccc"
         style="opacity:0.77876108;fill:#4d4d4d;fill-opacity:1;stroke:none;stroke-width:0.86666667"
         d="m 71.168193,255.77333 h 21.774994 c 1.077257,3.01465 3.918563,5.2 7.312503,5.2 4.32119,0 7.79999,-3.4788 7.79999,-7.8 0,-4.3212 -3.4788,-7.8 -7.79999,-7.8 -3.39394,0 -6.235246,2.18535 -7.312503,5.2 H 71.168193 c 0.4875,2.6 0.4875,2.6 0,5.2 z"
         id="path3829"
         inkscape:connector-curvature="0" />
      <path
         inkscape:connector-curvature="0"
         id="rect3812"
         d="m 27.455699,245.37333 c -4.32119,0 -7.79999,3.4788 -7.79999,7.8 0,4.3212 3.4788,7.8 7.79999,7.8 3.39394,0 6.235244,-2.18535 7.312501,-5.2 h 21.774997 c 1.077257,3.01465 3.918563,5.2 7.312498,5.2 4.321199,0 7.799998,-3.4788 7.799998,-7.8 0,-4.3212 -3.478799,-7.8 -7.799998,-7.8 -3.393935,0 -6.235241,2.18535 -7.312498,5.2 H 34.7682 c -1.077257,-3.01465 -3.918561,-5.2 -7.312501,-5.2 z"
         style="fill:#d35400;fill-opacity:1;stroke:none;stroke-width:0.86666667" />
    </g>
  </g>
</svg>
